assets/icons/24px/stroke/tree-map-up-24px.svg

<svg width="24" height="24" viewBox="0 0 24 24" fill="none" xmlns="http://www.w3.org/2000/svg">
<g clip-path="url(#clip0_878_24433)">
<g clip-path="url(#clip1_878_24433)">
<path fill-rule="evenodd" clip-rule="evenodd" d="M13 13L14.5 13C14.522 13 14.544 13 14.5658 13C15.4523 13.0001 16.2161 13.0001 16.8278 12.9179C17.4833 12.8297 18.1117 12.631 18.6213 12.1213C19.131 11.6117 19.3297 10.9833 19.4179 10.3278C19.5001 9.71613 19.5 8.95232 19.5 8.06583L19.5 8L17.5 8C17.5 8.97108 17.4979 9.59879 17.4357 10.0613C17.3774 10.495 17.2832 10.631 17.2071 10.7071C17.131 10.7832 16.995 10.8774 16.5613 10.9357C16.0988 10.9979 15.4711 11 14.5 11L9.5 11C8.52892 11 7.90121 10.9979 7.4387 10.9357C7.00496 10.8774 6.86901 10.7832 6.79289 10.7071C6.71676 10.631 6.62262 10.495 6.5643 10.0613C6.50212 9.59879 6.5 8.97108 6.5 8L4.5 8L4.49999 8.06583C4.49994 8.95232 4.4999 9.71613 4.58214 10.3278C4.67027 10.9833 4.86901 11.6117 5.37867 12.1213C5.88834 12.631 6.51669 12.8297 7.1722 12.9179C7.78386 13.0001 8.54768 13.0001 9.43416 13L11 13L11 16L13 16L13 13Z" fill="white"/>
<path fill-rule="evenodd" clip-rule="evenodd" d="M12 20C12.8284 20 13.5 19.3284 13.5 18.5C13.5 17.6716 12.8284 17 12 17C11.1716 17 10.5 17.6716 10.5 18.5C10.5 19.3284 11.1716 20 12 20ZM15.5 18.5C15.5 20.433 13.933 22 12 22C10.067 22 8.5 20.433 8.5 18.5C8.5 16.567 10.067 15 12 15C13.933 15 15.5 16.567 15.5 18.5Z" fill="white"/>
<path fill-rule="evenodd" clip-rule="evenodd" d="M18.5 7C19.3284 7 20 6.32843 20 5.5C20 4.67157 19.3284 4 18.5 4C17.6716 4 17 4.67157 17 5.5C17 6.32843 17.6716 7 18.5 7ZM22 5.5C22 7.433 20.433 9 18.5 9C16.567 9 15 7.433 15 5.5C15 3.567 16.567 2 18.5 2C20.433 2 22 3.567 22 5.5Z" fill="white"/>
<path fill-rule="evenodd" clip-rule="evenodd" d="M5.5 7C6.32843 7 7 6.32843 7 5.5C7 4.67157 6.32843 4 5.5 4C4.67157 4 4 4.67157 4 5.5C4 6.32843 4.67157 7 5.5 7ZM9 5.5C9 7.433 7.433 9 5.5 9C3.567 9 2 7.433 2 5.5C2 3.567 3.567 2 5.5 2C7.433 2 9 3.567 9 5.5Z" fill="white"/>
</g>
</g>
<defs>
<clipPath id="clip0_878_24433">
<rect width="24" height="24" fill="white"/>
</clipPath>
<clipPath id="clip1_878_24433">
<rect width="24" height="24" fill="white" transform="translate(24 24) rotate(-180)"/>
</clipPath>
</defs>
</svg>

<svg width="24" height="24" fill="none" xmlns="http://www.w3.org/2000/svg"><g clip-path="url(#clip0_878_24433)"><g clip-path="url(#clip1_878_24433)" fill-rule="evenodd" clip-rule="evenodd" fill="#fff"><path d="M13 13h1.566c.886 0 1.65 0 2.262-.082.655-.088 1.284-.287 1.793-.797.51-.51.709-1.138.797-1.793.082-.612.082-1.376.082-2.262V8h-2c0 .971-.002 1.599-.064 2.061-.059.434-.153.57-.229.646-.076.076-.212.17-.646.229-.462.062-1.09.064-2.061.064h-5c-.971 0-1.599-.002-2.061-.064-.434-.059-.57-.153-.646-.229-.076-.076-.17-.212-.229-.646C6.502 9.6 6.5 8.971 6.5 8h-2v.066c0 .886 0 1.65.082 2.262.088.655.287 1.284.797 1.793.51.51 1.138.709 1.793.797C7.784 13 8.548 13 9.434 13H11v3h2v-3z"/><path d="M12 20a1.5 1.5 0 1 0 0-3 1.5 1.5 0 0 0 0 3zm3.5-1.5a3.5 3.5 0 1 1-7 0 3.5 3.5 0 0 1 7 0zm3-11.5a1.5 1.5 0 1 0 0-3 1.5 1.5 0 0 0 0 3zM22 5.5a3.5 3.5 0 1 1-7 0 3.5 3.5 0 0 1 7 0zM5.5 7a1.5 1.5 0 1 0 0-3 1.5 1.5 0 0 0 0 3zM9 5.5a3.5 3.5 0 1 1-7 0 3.5 3.5 0 0 1 7 0z"/></g></g><defs><clipPath id="clip0_878_24433"><path fill="#fff" d="M0 0H24V24H0z"/></clipPath><clipPath id="clip1_878_24433"><path fill="#fff" transform="rotate(-180 12 12)" d="M0 0H24V24H0z"/></clipPath></defs></svg>
